src/assets/icons/icon-youtube.svg

<svg width="254" height="178" viewBox="0 0 254 178" fill="none" xmlns="http://www.w3.org/2000/svg">
<path d="M248.021 27.9863C245.113 17.106 236.542 8.53551 225.662 5.62716C205.941 0.341551 126.857 0.341553 126.857 0.341553C126.857 0.341553 47.7721 0.341551 28.0515 5.62716C17.1712 8.53551 8.6007 17.106 5.69235 27.9863C0.406738 47.7069 0.406738 88.8566 0.406738 88.8566C0.406738 88.8566 0.406738 130.006 5.69235 149.727C8.6007 160.607 17.1712 169.178 28.0515 172.086C47.7721 177.372 126.857 177.372 126.857 177.372C126.857 177.372 205.941 177.372 225.662 172.086C236.542 169.178 245.113 160.607 248.021 149.727C253.307 130.006 253.307 88.8566 253.307 88.8566C253.307 88.8566 253.307 47.7069 248.021 27.9863ZM101.567 126.792V50.9216L167.27 88.8566L101.567 126.792Z" fill="black"/>
</svg>

<svg width="254" height="178" fill="none" xmlns="http://www.w3.org/2000/svg"><path d="M248.021 27.986c-2.908-10.88-11.479-19.45-22.359-22.359C205.941.342 126.857.342 126.857.342s-79.085 0-98.805 5.285C17.172 8.536 8.6 17.106 5.692 27.987.407 47.706.407 88.856.407 88.856s0 41.149 5.285 60.87c2.909 10.88 11.48 19.451 22.36 22.359 19.72 5.286 98.805 5.286 98.805 5.286s79.084 0 98.805-5.286c10.88-2.908 19.451-11.479 22.359-22.359 5.286-19.721 5.286-60.87 5.286-60.87s0-41.15-5.286-60.87Zm-146.454 98.806v-75.87l65.703 37.935-65.703 37.935Z" fill="#000"/></svg>
